X:5550
T:Rickets Dance
O:england
S:John Clarkson Junr., American Tunes no 1, arranged for the Piano Forte
N:Edinburgh Printed and Sold by J. Clarkson
N:to be had at his House No. 63 South Bridge
B:NLS MH.e.41
V:1
V:2 bass
M:2/4
K:G
V:1 [L:1/16] G2GA  B2G2|A2AB  c2A2|G2GA   B2G2 |AGFE   D4    |
V:2 [L:1/8]  G,,2  G,2 |F,2   D,2 |G,2    G,,2 |D,2    C,2   |
V:1 [L:1/16] G2GA  B2G2|A2AB  c2A2|BdBG   AcAF |G4     G4   :|
V:2 [L:1/8]  B,,2  G,,2|F,,2  D,,2|G,,B,, D,D,,|G,,D,, G,,,2:|
V:1 [L:1/16] B2Bc  d2B2|dBdB  d2B2|A2AB   c2A2 |cAcA   c2A2  |
V:2 [L:1/8]  G,,G, G,G,|G,,G, G,,2|D,,D,  D,D, |D,,D,  D,,2  |
V:1 [L:1/16] B2Bc  d2B2|dBdB  d2B2|cBAG   FGAF |G2G2   G4   :|
V:2 [L:1/8]  G,,G, G,G,|G,,G, G,,2|C,G,,  D,D,,|G,,D,, G,,,2:|
V:1 [L:1/16] {DEF}[E2G2][E2G2] [F2D2][F2D2]|[E2C2][E2C2] [D4B,4] |\
E2c2         A2F2       | GFGA         G2(3DEF|
V:2 [L:1/8]        G,,G,        G,,G,      | G,,G,        G,,G,  |\
C,2          D,D,,      | G,,G,        G,,2   |
V:1 [L:1/16]      [E2G2][E2G2] [F2D2][F2D2]|[E2C2][E2C2] [D4B,4] |\
E2c2         A2F2       | G4           G4    :|
V:2 [L:1/8]        G,,G,        G,,G,      | G,,G,        G,,2   |\
B,,2         D,D,,      | G,,D,,       G,,,2 :|


